X: 185
T: Mouse In The Mug, The
M: 6/8
L: 1/8
R: jig
K: Gmaj
~G3 EGD | ~G3 Bdg | ege dBG | ~A3 BAB |
~G3 EGD | ~G3 Bdg | ~e3 dBG |1 AGF GBA :|2AGF GBd||
g2b agf | ege edB | d2g edB | BAG ABd |
gab agf | ege edB | deg edB | AGF GG/2B/2d |
g2b agf | ege edB | d2g edB | BAG ABA |
~G3 EGD | ~G3 Bdg | ~e3 dBG | AGF G3 ||

